X: 73
T:Fisherman, the
M:4/4
L:1/4
R:Reel
K:G
D|"G"D G G B|B d d2|d2 e>d|"D7"d c c2|D F F A|A c c2|"D7"f>e f>e|"G"e de
 d|!
"G"D G G B|B d d2|d2 g>d|"D"f e "C"e2|f e f e|e d e d|d>c "D7"B A|"G"G2-
G D|!
"G"D G B G|D G B G|B2 "Am"c>B|"G"B "D"A A2|D F A F|D F A F|"C"f>e f>e|"G
"e d e d|!
D G B G|D G B G|d2 g>d|"C"f e e2|fefe|"G"eded|"D7"d>c BA|"G"G2-G||
% <A name="D1X074">
